X: 35555
T: Rusty Gulley, The
R: three-two
M: 3/2
K: Gmajor
GABc d2 G2 d2 G2|F2 A4 c2 B2 A2|GABc d2 G2 d2 D2|D2 G4 B2 A2 G2:|
g2ag f2 gf e2 ag|f2 d4 f2 e2 d2|c2 dc B2 cB A2 dc|B2 (G2 G2) B2 A2 G2:|

